actions/24/mail-open-multiple.svg

<?xml version="1.0" encoding="UTF-8" standalone="no"?>
<svg
   width="24"
   height="24"
   version="1.1"
   id="svg9"
   sodipodi:docname="mail-open-multiple.svg"
   inkscape:version="1.1.2 (0a00cf5339, 2022-02-04)"
   xmlns:inkscape="http://www.inkscape.org/namespaces/inkscape"
   xmlns:sodipodi="http://sodipodi.sourceforge.net/DTD/sodipodi-0.dtd"
   xmlns="http://www.w3.org/2000/svg"
   xmlns:svg="http://www.w3.org/2000/svg">
  <sodipodi:namedview
     id="namedview11"
     pagecolor="#000000"
     bordercolor="#666666"
     borderopacity="1.0"
     inkscape:pageshadow="2"
     inkscape:pageopacity="0"
     inkscape:pagecheckerboard="0"
     showgrid="false"
     inkscape:zoom="28.416667"
     inkscape:cx="11.982405"
     inkscape:cy="11.964809"
     inkscape:window-width="1482"
     inkscape:window-height="967"
     inkscape:window-x="0"
     inkscape:window-y="29"
     inkscape:window-maximized="1"
     inkscape:current-layer="g7" />
  <defs
     id="defs3">
    <style
       id="current-color-scheme"
       type="text/css">
   .ColorScheme-Text { color:#eeeeec; } .ColorScheme-Highlight { color:#367bf0; } .ColorScheme-NeutralText { color:#ffcc44; } .ColorScheme-PositiveText { color:#3db47e; } .ColorScheme-NegativeText { color:#dd4747; }
  </style>
  </defs>
  <g
     transform="translate(4,4)"
     id="g7">
    <path
       style="fill:currentColor"
       class="ColorScheme-Text"
       d="M 3,1 V 3 H 13 V 1 Z M 2,3 C 2,3 0,3 0,5 v 8 c 0,2 2,2 2,2 H 8 V 10 L 2,7 Z M 14,3 V 7 L 13.208121,7.3959396 13.284937,8 V 8 H 16 V 5 C 16,3 14,3 14,3 Z M 3,5 V 7 H 13 V 5 Z m 7,4 C 9,9 9,10 9,10 v 5 c 0,0 0,1 1,1 h 5 c 1,0 1,-1 1,-1 v -5 c 0,0 0,-1 -1,-1 z m 0,1 h 1 v 1 h 1 v 1 h 1 v -1 h 1 v -1 h 1 v 5 h -1 v -3 h -1 v 1 h -1 v -1 h -1 v 3 h -1 z"
       id="path5"
       sodipodi:nodetypes="ccccccsscccccccccccsccccccsccssccssccccccccccccccccccccc" />
  </g>
</svg>

<svg xmlns="http://www.w3.org/2000/svg" width="24" height="24" version="1.1">
 <defs>
  <style id="current-color-scheme" type="text/css">
   .ColorScheme-Text { color:#eeeeec; } .ColorScheme-Highlight { color:#367bf0; } .ColorScheme-NeutralText { color:#ffcc44; } .ColorScheme-PositiveText { color:#3db47e; } .ColorScheme-NegativeText { color:#dd4747; }
  </style>
 </defs>
 <g transform="translate(4,4)">
  <path style="fill:currentColor" class="ColorScheme-Text" d="M 3,1 V 3 H 13 V 1 Z M 2,3 C 2,3 0,3 0,5 V 13 C 0,15 2,15 2,15 H 8 V 10 L 2,7 Z M 14,3 V 7 L 12,8 H 16 V 5 C 16,3 14,3 14,3 Z M 3,5 V 7 H 13 V 5 Z M 10,9 C 9,9 9,10 9,10 V 15 C 9,15 9,16 10,16 H 15 C 16,16 16,15 16,15 V 10 C 16,10 16,9 15,9 Z M 10,10 H 11 V 11 H 12 V 12 H 13 V 11 H 14 V 10 H 15 V 15 H 14 V 12 H 13 V 13 H 12 V 12 H 11 V 15 H 10 Z"/>
 </g>
</svg>
